Newaita-dark/apps/48/xorg.svg

<svg height="48pt" viewBox="0 0 48 48" width="48pt" xmlns="http://www.w3.org/2000/svg" xmlns:xlink="http://www.w3.org/1999/xlink"><linearGradient id="a"><stop offset="0" stop-opacity=".313725"/><stop offset=".222222" stop-opacity=".27451"/><stop offset="1" stop-opacity="0"/></linearGradient><radialGradient id="b" cx="450.908936" cy="189.579361" gradientTransform="matrix(.00000026 -.117199 -.210958 -.00000015 50.412071 95.392994)" gradientUnits="userSpaceOnUse" r="21.166656" xlink:href="#a"/><radialGradient id="c" cx="450.908936" cy="189.579361" gradientTransform="matrix(-.00000026 .117199 .210958 .00000015 -29.574141 -11.291223)" gradientUnits="userSpaceOnUse" r="21.166656" xlink:href="#a"/><radialGradient id="d" cx="450.908936" cy="189.579361" gradientTransform="matrix(-.00000026 -.117199 .210958 -.00000015 -29.574141 95.392994)" gradientUnits="userSpaceOnUse" r="21.166656" xlink:href="#a"/><radialGradient id="e" cx="450.908936" cy="189.579361" gradientTransform="matrix(.00000026 .117199 -.210958 .00000015 50.412068 -11.291224)" gradientUnits="userSpaceOnUse" r="21.166656" xlink:href="#a"/><linearGradient id="f"><stop offset="0" stop-opacity=".27451"/><stop offset="1" stop-opacity="0"/></linearGradient><linearGradient id="g" gradientTransform="matrix(.00286287 0 0 .093759 9.688008 20.158175)" gradientUnits="userSpaceOnUse" x1="255.323059" x2="255.323044" xlink:href="#f" y1="233.5" y2="254.666656"/><radialGradient id="h" cx="450.908936" cy="189.579361" gradientTransform="matrix(.00000026 -.117199 -.210958 -.00000015 77.203692 95.392994)" gradientUnits="userSpaceOnUse" r="21.166656" xlink:href="#a"/><radialGradient id="i" cx="450.908936" cy="189.579361" gradientTransform="matrix(-.00000026 .117199 .210958 .00000015 -2.78252 -11.291223)" gradientUnits="userSpaceOnUse" r="21.166656" xlink:href="#a"/><radialGradient id="j" cx="450.908936" cy="189.579361" gradientTransform="matrix(-.00000026 -.117199 .210958 -.00000015 -2.78252 95.392994)" gradientUnits="userSpaceOnUse" r="21.166656" xlink:href="#a"/><radialGradient id="k" cx="450.908936" cy="189.579361" gradientTransform="matrix(.00000026 .117199 -.210958 .00000015 77.203689 -11.291224)" gradientUnits="userSpaceOnUse" r="21.166656" xlink:href="#a"/><linearGradient id="l" gradientTransform="matrix(.00286287 0 0 .093759 36.479629 20.158175)" gradientUnits="userSpaceOnUse" x1="255.323059" x2="255.323044" xlink:href="#f" y1="233.5" y2="254.666656"/><linearGradient id="m" gradientUnits="userSpaceOnUse" x1="23.814786" x2="23.814786" y1="42.0509015" y2="4.34415649995"><stop offset="0" stop-color="#424242"/><stop offset="1" stop-color="#616161"/></linearGradient><path d="m10.914062 42.050781h3.96875v-1.984375h-3.96875zm0 0" fill="url(#b)"/><path d="m9.921875 42.050781h-3.96875v1.984375h3.96875zm0 0" fill="url(#c)"/><path d="m9.921875 42.050781h-3.96875v-1.984375h3.96875zm0 0" fill="url(#d)"/><path d="m10.914062 42.050781h3.96875v1.984375h-3.96875zm0 0" fill="url(#e)"/><path d="m9.921875 41.554688h.992187v2.480468h-.992187zm0 0" fill="url(#g)"/><path d="m37.707031 42.050781h3.96875v-1.984375h-3.96875zm0 0" fill="url(#h)"/><path d="m36.714844 42.050781h-3.96875v1.984375h3.96875zm0 0" fill="url(#i)"/><path d="m36.714844 42.050781h-3.96875v-1.984375h3.96875zm0 0" fill="url(#j)"/><path d="m37.707031 42.050781h3.96875v1.984375h-3.96875zm0 0" fill="url(#k)"/><path d="m36.714844 41.554688h.992187v2.480468h-.992187zm0 0" fill="url(#l)"/><path d="m10.835938 4.804688c-.507813 0-1.015626.191406-1.40625.582031l-3.507813 3.507812c-.777344.777344-.777344 2.027344 0 2.808594l11.578125 11.574219-11.578125 11.578125c-.777344.777343-.777344 2.03125 0 2.808593l3.507813 3.507813c.777343.777344 2.03125.777344 2.808593 0l11.578125-11.578125 11.574219 11.578125c.777344.777344 2.03125.777344 2.808594 0l3.507812-3.507813c.777344-.777343.777344-2.03125 0-2.808593l-11.578125-11.578125 11.578125-11.574219c.777344-.78125.777344-2.03125 0-2.808594l-3.507812-3.507812c-.390625-.390625-.898438-.582031-1.402344-.582031-.507813 0-1.015625.191406-1.40625.582031l-11.574219 11.578125-11.578125-11.578125c-.390625-.390625-.898437-.582031-1.402343-.582031zm0 0" fill="url(#m)"/><path d="m10.835938 4.804688c-.507813 0-1.015626.191406-1.40625.582031l-3.507813 3.507812c-.457031.460938-.648437 1.085938-.5625 1.679688.058594-.410157.246094-.808594.5625-1.125l3.507813-3.507813c.390624-.390625.898437-.585937 1.40625-.585937.503906 0 1.011718.195312 1.402343.585937l11.578125 11.574219 11.574219-11.574219c.390625-.390625.898437-.585937 1.40625-.585937.503906 0 1.011719.195312 1.402344.585937l3.507812 3.507813c.316407.316406.503907.714843.5625 1.125.085938-.59375-.101562-1.21875-.5625-1.679688l-3.507812-3.507812c-.390625-.390625-.898438-.582031-1.402344-.582031-.507813 0-1.015625.191406-1.40625.582031l-11.574219 11.578125-11.578125-11.578125c-.390625-.390625-.898437-.582031-1.402343-.582031zm6.386718 18.75-11.300781 11.300781c-.457031.460937-.648437 1.085937-.5625 1.679687.058594-.410156.246094-.808594.5625-1.125l11.578125-11.578125zm13.183594 0-.277344.277343 11.578125 11.578125c.316407.316406.503907.714844.5625 1.125.085938-.59375-.101562-1.21875-.5625-1.679687zm0 0" fill="#fff" fill-opacity=".392157"/><path d="m10.835938 41.867188c-.507813 0-1.015626-.195313-1.40625-.585938l-3.507813-3.507812c-.457031-.460938-.648437-1.085938-.5625-1.679688.058594.410156.246094.808594.5625 1.125l3.507813 3.507812c.390624.390626.898437.585938 1.40625.585938.503906 0 1.011718-.195312 1.402343-.585938l11.578125-11.574218 11.574219 11.574218c.390625.390626.898437.585938 1.40625.585938.503906 0 1.011719-.195312 1.402344-.585938l3.507812-3.507812c.316407-.316406.503907-.714844.5625-1.125.085938.59375-.101562 1.21875-.5625 1.679688l-3.507812 3.507812c-.390625.390625-.898438.585938-1.402344.585938-.507813 0-1.015625-.195313-1.40625-.585938l-11.574219-11.578125-11.578125 11.578125c-.390625.390625-.898437.585938-1.402343.585938zm6.386718-18.753907-11.300781-11.300781c-.457031-.460938-.648437-1.085938-.5625-1.679688.058594.410157.246094.808594.5625 1.125l11.578125 11.578126zm13.183594 0-.277344-.277343 11.578125-11.578126c.316407-.316406.503907-.714843.5625-1.125.085938.59375-.101562 1.21875-.5625 1.679688zm0 0" fill-opacity=".235294"/><path d="m10.835938 4.664062c-.542969 0-1.089844.207032-1.503907.621094l-3.507812 3.511719c-.832031.828125-.832031 2.171875 0 3.003906l11.476562 11.476563-11.476562 11.480468c-.832031.828126-.832031 2.171876 0 3.003907l3.507812 3.507812c.832031.832031 2.175781.832031 3.003907 0l11.480468-11.476562 11.476563 11.476562c.832031.832031 2.175781.832031 3.003906 0l3.507813-3.507812c.832031-.832031.832031-2.175781 0-3.003907l-11.476563-11.480468 11.476563-11.476563c.832031-.832031.832031-2.175781 0-3.003906l-3.507813-3.511719c-.414063-.414062-.957031-.621094-1.5-.621094s-1.089844.207032-1.503906.621094l-11.476563 11.480469-11.480468-11.480469c-.414063-.414062-.957032-.621094-1.5-.621094zm0 .28125c.46875 0 .941406.179688 1.300781.539063l11.578125 11.578125c.054687.054688.144531.054688.199218 0l11.578126-11.578125c.359374-.359375.832031-.539063 1.304687-.539063.46875 0 .941406.179688 1.300781.539063l3.507813 3.507813c.726562.726562.726562 1.886718 0 2.609374l-11.574219 11.578126c-.054688.054687-.054688.144531 0 .199218l11.574219 11.574219c.726562.726563.726562 1.886719 0 2.609375l-3.507813 3.507812c-.722656.726563-1.882812.726563-2.605468 0l-11.578126-11.578124c-.054687-.054688-.144531-.054688-.199218 0l-11.578125 11.578124c-.722657.726563-1.882813.726563-2.605469 0l-3.507812-3.507812c-.726563-.722656-.726563-1.882812 0-2.609375l11.574218-11.574219c.058594-.054687.058594-.144531 0-.199218l-11.574218-11.578126c-.726563-.722656-.726563-1.882812 0-2.609374l3.507812-3.507813c.359375-.359375.832031-.539063 1.304688-.539063zm0 0" fill="#212121"/></svg>

<?xml version="1.0" encoding="UTF-8"?>
<svg xmlns="http://www.w3.org/2000/svg" xmlns:xlink="http://www.w3.org/1999/xlink" width="48pt" height="48pt" viewBox="0 0 48 48" version="1.1">
<defs>
<radialGradient id="radial0" gradientUnits="userSpaceOnUse" cx="450.908936" cy="189.579361" fx="450.908936" fy="189.579361" r="21.166656" gradientTransform="matrix(0.000000261256,-0.117199,-0.210958,-0.000000152308,50.412071,95.392994)">
<stop offset="0" style="stop-color:rgb(0%,0%,0%);stop-opacity:0.313725;"/>
<stop offset="0.222222" style="stop-color:rgb(0%,0%,0%);stop-opacity:0.27451;"/>
<stop offset="1" style="stop-color:rgb(0%,0%,0%);stop-opacity:0;"/>
</radialGradient>
<radialGradient id="radial1" gradientUnits="userSpaceOnUse" cx="450.908936" cy="189.579361" fx="450.908936" fy="189.579361" r="21.166656" gradientTransform="matrix(-0.000000261256,0.117199,0.210958,0.000000152308,-29.574141,-11.291223)">
<stop offset="0" style="stop-color:rgb(0%,0%,0%);stop-opacity:0.313725;"/>
<stop offset="0.222222" style="stop-color:rgb(0%,0%,0%);stop-opacity:0.27451;"/>
<stop offset="1" style="stop-color:rgb(0%,0%,0%);stop-opacity:0;"/>
</radialGradient>
<radialGradient id="radial2" gradientUnits="userSpaceOnUse" cx="450.908936" cy="189.579361" fx="450.908936" fy="189.579361" r="21.166656" gradientTransform="matrix(-0.000000261256,-0.117199,0.210958,-0.000000152308,-29.574141,95.392994)">
<stop offset="0" style="stop-color:rgb(0%,0%,0%);stop-opacity:0.313725;"/>
<stop offset="0.222222" style="stop-color:rgb(0%,0%,0%);stop-opacity:0.27451;"/>
<stop offset="1" style="stop-color:rgb(0%,0%,0%);stop-opacity:0;"/>
</radialGradient>
<radialGradient id="radial3" gradientUnits="userSpaceOnUse" cx="450.908936" cy="189.579361" fx="450.908936" fy="189.579361" r="21.166656" gradientTransform="matrix(0.000000261256,0.117199,-0.210958,0.000000152308,50.412068,-11.291224)">
<stop offset="0" style="stop-color:rgb(0%,0%,0%);stop-opacity:0.313725;"/>
<stop offset="0.222222" style="stop-color:rgb(0%,0%,0%);stop-opacity:0.27451;"/>
<stop offset="1" style="stop-color:rgb(0%,0%,0%);stop-opacity:0;"/>
</radialGradient>
<linearGradient id="linear0" gradientUnits="userSpaceOnUse" x1="255.323059" y1="233.5" x2="255.323044" y2="254.666656" gradientTransform="matrix(0.00286287,0,0,0.093759,9.688008,20.158175)">
<stop offset="0" style="stop-color:rgb(0%,0%,0%);stop-opacity:0.27451;"/>
<stop offset="1" style="stop-color:rgb(0%,0%,0%);stop-opacity:0;"/>
</linearGradient>
<radialGradient id="radial4" gradientUnits="userSpaceOnUse" cx="450.908936" cy="189.579361" fx="450.908936" fy="189.579361" r="21.166656" gradientTransform="matrix(0.000000261256,-0.117199,-0.210958,-0.000000152308,77.203692,95.392994)">
<stop offset="0" style="stop-color:rgb(0%,0%,0%);stop-opacity:0.313725;"/>
<stop offset="0.222222" style="stop-color:rgb(0%,0%,0%);stop-opacity:0.27451;"/>
<stop offset="1" style="stop-color:rgb(0%,0%,0%);stop-opacity:0;"/>
</radialGradient>
<radialGradient id="radial5" gradientUnits="userSpaceOnUse" cx="450.908936" cy="189.579361" fx="450.908936" fy="189.579361" r="21.166656" gradientTransform="matrix(-0.000000261256,0.117199,0.210958,0.000000152308,-2.78252,-11.291223)">
<stop offset="0" style="stop-color:rgb(0%,0%,0%);stop-opacity:0.313725;"/>
<stop offset="0.222222" style="stop-color:rgb(0%,0%,0%);stop-opacity:0.27451;"/>
<stop offset="1" style="stop-color:rgb(0%,0%,0%);stop-opacity:0;"/>
</radialGradient>
<radialGradient id="radial6" gradientUnits="userSpaceOnUse" cx="450.908936" cy="189.579361" fx="450.908936" fy="189.579361" r="21.166656" gradientTransform="matrix(-0.000000261256,-0.117199,0.210958,-0.000000152308,-2.78252,95.392994)">
<stop offset="0" style="stop-color:rgb(0%,0%,0%);stop-opacity:0.313725;"/>
<stop offset="0.222222" style="stop-color:rgb(0%,0%,0%);stop-opacity:0.27451;"/>
<stop offset="1" style="stop-color:rgb(0%,0%,0%);stop-opacity:0;"/>
</radialGradient>
<radialGradient id="radial7" gradientUnits="userSpaceOnUse" cx="450.908936" cy="189.579361" fx="450.908936" fy="189.579361" r="21.166656" gradientTransform="matrix(0.000000261256,0.117199,-0.210958,0.000000152308,77.203689,-11.291224)">
<stop offset="0" style="stop-color:rgb(0%,0%,0%);stop-opacity:0.313725;"/>
<stop offset="0.222222" style="stop-color:rgb(0%,0%,0%);stop-opacity:0.27451;"/>
<stop offset="1" style="stop-color:rgb(0%,0%,0%);stop-opacity:0;"/>
</radialGradient>
<linearGradient id="linear1" gradientUnits="userSpaceOnUse" x1="255.323059" y1="233.5" x2="255.323044" y2="254.666656" gradientTransform="matrix(0.00286287,0,0,0.093759,36.479629,20.158175)">
<stop offset="0" style="stop-color:rgb(0%,0%,0%);stop-opacity:0.27451;"/>
<stop offset="1" style="stop-color:rgb(0%,0%,0%);stop-opacity:0;"/>
</linearGradient>
<linearGradient id="linear2" gradientUnits="userSpaceOnUse" x1="254" y1="233.5" x2="254" y2="-168.666672" gradientTransform="matrix(0.093759,0,0,0.093759,0,20.158175)">
<stop offset="0" style="stop-color:rgb(25.882353%,25.882353%,25.882353%);stop-opacity:1;"/>
<stop offset="1" style="stop-color:rgb(38.039216%,38.039216%,38.039216%);stop-opacity:1;"/>
</linearGradient>
</defs>
<g id="surface1">
<path style=" stroke:none;fill-rule:nonzero;fill:url(#radial0);" d="M 10.914062 42.050781 L 14.882812 42.050781 L 14.882812 40.066406 L 10.914062 40.066406 Z M 10.914062 42.050781 "/>
<path style=" stroke:none;fill-rule:nonzero;fill:url(#radial1);" d="M 9.921875 42.050781 L 5.953125 42.050781 L 5.953125 44.035156 L 9.921875 44.035156 Z M 9.921875 42.050781 "/>
<path style=" stroke:none;fill-rule:nonzero;fill:url(#radial2);" d="M 9.921875 42.050781 L 5.953125 42.050781 L 5.953125 40.066406 L 9.921875 40.066406 Z M 9.921875 42.050781 "/>
<path style=" stroke:none;fill-rule:nonzero;fill:url(#radial3);" d="M 10.914062 42.050781 L 14.882812 42.050781 L 14.882812 44.035156 L 10.914062 44.035156 Z M 10.914062 42.050781 "/>
<path style=" stroke:none;fill-rule:nonzero;fill:url(#linear0);" d="M 9.921875 41.554688 L 10.914062 41.554688 L 10.914062 44.035156 L 9.921875 44.035156 Z M 9.921875 41.554688 "/>
<path style=" stroke:none;fill-rule:nonzero;fill:url(#radial4);" d="M 37.707031 42.050781 L 41.675781 42.050781 L 41.675781 40.066406 L 37.707031 40.066406 Z M 37.707031 42.050781 "/>
<path style=" stroke:none;fill-rule:nonzero;fill:url(#radial5);" d="M 36.714844 42.050781 L 32.746094 42.050781 L 32.746094 44.035156 L 36.714844 44.035156 Z M 36.714844 42.050781 "/>
<path style=" stroke:none;fill-rule:nonzero;fill:url(#radial6);" d="M 36.714844 42.050781 L 32.746094 42.050781 L 32.746094 40.066406 L 36.714844 40.066406 Z M 36.714844 42.050781 "/>
<path style=" stroke:none;fill-rule:nonzero;fill:url(#radial7);" d="M 37.707031 42.050781 L 41.675781 42.050781 L 41.675781 44.035156 L 37.707031 44.035156 Z M 37.707031 42.050781 "/>
<path style=" stroke:none;fill-rule:nonzero;fill:url(#linear1);" d="M 36.714844 41.554688 L 37.707031 41.554688 L 37.707031 44.035156 L 36.714844 44.035156 Z M 36.714844 41.554688 "/>
<path style=" stroke:none;fill-rule:nonzero;fill:url(#linear2);" d="M 10.835938 4.804688 C 10.328125 4.804688 9.820312 4.996094 9.429688 5.386719 L 5.921875 8.894531 C 5.144531 9.671875 5.144531 10.921875 5.921875 11.703125 L 17.5 23.277344 L 5.921875 34.855469 C 5.144531 35.632812 5.144531 36.886719 5.921875 37.664062 L 9.429688 41.171875 C 10.207031 41.949219 11.460938 41.949219 12.238281 41.171875 L 23.816406 29.59375 L 35.390625 41.171875 C 36.167969 41.949219 37.421875 41.949219 38.199219 41.171875 L 41.707031 37.664062 C 42.484375 36.886719 42.484375 35.632812 41.707031 34.855469 L 30.128906 23.277344 L 41.707031 11.703125 C 42.484375 10.921875 42.484375 9.671875 41.707031 8.894531 L 38.199219 5.386719 C 37.808594 4.996094 37.300781 4.804688 36.796875 4.804688 C 36.289062 4.804688 35.78125 4.996094 35.390625 5.386719 L 23.816406 16.964844 L 12.238281 5.386719 C 11.847656 4.996094 11.339844 4.804688 10.835938 4.804688 Z M 10.835938 4.804688 "/>
<path style=" stroke:none;fill-rule:nonzero;fill:rgb(100%,100%,100%);fill-opacity:0.392157;" d="M 10.835938 4.804688 C 10.328125 4.804688 9.820312 4.996094 9.429688 5.386719 L 5.921875 8.894531 C 5.464844 9.355469 5.273438 9.980469 5.359375 10.574219 C 5.417969 10.164062 5.605469 9.765625 5.921875 9.449219 L 9.429688 5.941406 C 9.820312 5.550781 10.328125 5.355469 10.835938 5.355469 C 11.339844 5.355469 11.847656 5.550781 12.238281 5.941406 L 23.816406 17.515625 L 35.390625 5.941406 C 35.78125 5.550781 36.289062 5.355469 36.796875 5.355469 C 37.300781 5.355469 37.808594 5.550781 38.199219 5.941406 L 41.707031 9.449219 C 42.023438 9.765625 42.210938 10.164062 42.269531 10.574219 C 42.355469 9.980469 42.167969 9.355469 41.707031 8.894531 L 38.199219 5.386719 C 37.808594 4.996094 37.300781 4.804688 36.796875 4.804688 C 36.289062 4.804688 35.78125 4.996094 35.390625 5.386719 L 23.816406 16.964844 L 12.238281 5.386719 C 11.847656 4.996094 11.339844 4.804688 10.835938 4.804688 Z M 17.222656 23.554688 L 5.921875 34.855469 C 5.464844 35.316406 5.273438 35.941406 5.359375 36.535156 C 5.417969 36.125 5.605469 35.726562 5.921875 35.410156 L 17.5 23.832031 Z M 30.40625 23.554688 L 30.128906 23.832031 L 41.707031 35.410156 C 42.023438 35.726562 42.210938 36.125 42.269531 36.535156 C 42.355469 35.941406 42.167969 35.316406 41.707031 34.855469 Z M 30.40625 23.554688 "/>
<path style=" stroke:none;fill-rule:nonzero;fill:rgb(0%,0%,0%);fill-opacity:0.235294;" d="M 10.835938 41.867188 C 10.328125 41.867188 9.820312 41.671875 9.429688 41.28125 L 5.921875 37.773438 C 5.464844 37.3125 5.273438 36.6875 5.359375 36.09375 C 5.417969 36.503906 5.605469 36.902344 5.921875 37.21875 L 9.429688 40.726562 C 9.820312 41.117188 10.328125 41.3125 10.835938 41.3125 C 11.339844 41.3125 11.847656 41.117188 12.238281 40.726562 L 23.816406 29.152344 L 35.390625 40.726562 C 35.78125 41.117188 36.289062 41.3125 36.796875 41.3125 C 37.300781 41.3125 37.808594 41.117188 38.199219 40.726562 L 41.707031 37.21875 C 42.023438 36.902344 42.210938 36.503906 42.269531 36.09375 C 42.355469 36.6875 42.167969 37.3125 41.707031 37.773438 L 38.199219 41.28125 C 37.808594 41.671875 37.300781 41.867188 36.796875 41.867188 C 36.289062 41.867188 35.78125 41.671875 35.390625 41.28125 L 23.816406 29.703125 L 12.238281 41.28125 C 11.847656 41.671875 11.339844 41.867188 10.835938 41.867188 Z M 17.222656 23.113281 L 5.921875 11.8125 C 5.464844 11.351562 5.273438 10.726562 5.359375 10.132812 C 5.417969 10.542969 5.605469 10.941406 5.921875 11.257812 L 17.5 22.835938 Z M 30.40625 23.113281 L 30.128906 22.835938 L 41.707031 11.257812 C 42.023438 10.941406 42.210938 10.542969 42.269531 10.132812 C 42.355469 10.726562 42.167969 11.351562 41.707031 11.8125 Z M 30.40625 23.113281 "/>
<path style=" stroke:none;fill-rule:nonzero;fill:rgb(12.941177%,12.941177%,12.941177%);fill-opacity:1;" d="M 10.835938 4.664062 C 10.292969 4.664062 9.746094 4.871094 9.332031 5.285156 L 5.824219 8.796875 C 4.992188 9.625 4.992188 10.96875 5.824219 11.800781 L 17.300781 23.277344 L 5.824219 34.757812 C 4.992188 35.585938 4.992188 36.929688 5.824219 37.761719 L 9.332031 41.269531 C 10.164062 42.101562 11.507812 42.101562 12.335938 41.269531 L 23.816406 29.792969 L 35.292969 41.269531 C 36.125 42.101562 37.46875 42.101562 38.296875 41.269531 L 41.804688 37.761719 C 42.636719 36.929688 42.636719 35.585938 41.804688 34.757812 L 30.328125 23.277344 L 41.804688 11.800781 C 42.636719 10.96875 42.636719 9.625 41.804688 8.796875 L 38.296875 5.285156 C 37.882812 4.871094 37.339844 4.664062 36.796875 4.664062 C 36.253906 4.664062 35.707031 4.871094 35.292969 5.285156 L 23.816406 16.765625 L 12.335938 5.285156 C 11.921875 4.871094 11.378906 4.664062 10.835938 4.664062 Z M 10.835938 4.945312 C 11.304688 4.945312 11.777344 5.125 12.136719 5.484375 L 23.714844 17.0625 C 23.769531 17.117188 23.859375 17.117188 23.914062 17.0625 L 35.492188 5.484375 C 35.851562 5.125 36.324219 4.945312 36.796875 4.945312 C 37.265625 4.945312 37.738281 5.125 38.097656 5.484375 L 41.605469 8.992188 C 42.332031 9.71875 42.332031 10.878906 41.605469 11.601562 L 30.03125 23.179688 C 29.976562 23.234375 29.976562 23.324219 30.03125 23.378906 L 41.605469 34.953125 C 42.332031 35.679688 42.332031 36.839844 41.605469 37.5625 L 38.097656 41.070312 C 37.375 41.796875 36.214844 41.796875 35.492188 41.070312 L 23.914062 29.492188 C 23.859375 29.4375 23.769531 29.4375 23.714844 29.492188 L 12.136719 41.070312 C 11.414062 41.796875 10.253906 41.796875 9.53125 41.070312 L 6.023438 37.5625 C 5.296875 36.839844 5.296875 35.679688 6.023438 34.953125 L 17.597656 23.378906 C 17.65625 23.324219 17.65625 23.234375 17.597656 23.179688 L 6.023438 11.601562 C 5.296875 10.878906 5.296875 9.71875 6.023438 8.992188 L 9.53125 5.484375 C 9.890625 5.125 10.363281 4.945312 10.835938 4.945312 Z M 10.835938 4.945312 "/>
</g>
</svg>
